Adwaita++/actions/16/svn-commit.svg

<svg height="16" viewBox="0 0 16 16" width="16" xmlns="http://www.w3.org/2000/svg">
  <path d="m3.5 1c-1.3807 0-2.5 1.1193-2.5 2.5.0001 1.1879.8361 2.2116187 2 2.4492188v4.0039062c-1.1632.23743-1.9989 1.260066-2 2.447266 0 1.3807 1.1193 2.5 2.5 2.5s2.5-1.1193 2.5-2.5c-.0001-1.187-.8361-2.211419-2-2.4492191v-4.0058594c.3899-.0782.7554063-.2482938 1.0664062-.4960937l1.2128907.9082031c-.1826.3532-.2783969.7448781-.2792969 1.1425781 0 1.3807 1.1193 2.5 2.5 2.5s2.5-1.1193 2.5-2.5-1.1193-2.5-2.5-2.5c-.592.0011-1.1643344.2122031-1.6152344.5957031l-1.1933594-.8925781c.2024-.3687.3085938-.782525.3085938-1.203125 0-1.3807-1.1193-2.5-2.5-2.5zm8 8-.21875.1875-3.28125 2.8125h2v3h3v-3h2l-3.28125-2.8125z" fill="#474747"/>
</svg>

<svg xmlns="http://www.w3.org/2000/svg" width="16" height="16" viewBox="0 0 16 16">
 <defs>
  <style id="current-color-scheme" type="text/css">
   .ColorScheme-Text { color:#474747; } .ColorScheme-Highlight { color:#4285f4; }
  </style>
 </defs>
 <path style="fill:currentColor" class="ColorScheme-Text" d="M 3.5 1 C 2.1193 1 1 2.1193 1 3.5 C 1.0001 4.6879 1.8361 5.7116187 3 5.9492188 L 3 9.953125 C 1.8368 10.190555 1.0011 11.213191 1 12.400391 C 1 13.781091 2.1193 14.900391 3.5 14.900391 C 4.8807 14.900391 6 13.781091 6 12.400391 C 5.9999 11.213391 5.1639 10.188972 4 9.9511719 L 4 5.9453125 C 4.3899 5.8671125 4.7554063 5.6970187 5.0664062 5.4492188 L 6.2792969 6.3574219 C 6.0966969 6.7106219 6.0009 7.1023 6 7.5 C 6 8.8807 7.1193 10 8.5 10 C 9.8807 10 11 8.8807 11 7.5 C 11 6.1193 9.8807 5 8.5 5 C 7.908 5.0011 7.3356656 5.2122031 6.8847656 5.5957031 L 5.6914062 4.703125 C 5.8938062 4.334425 6 3.9206 6 3.5 C 6 2.1193 4.8807 1 3.5 1 z M 11.5 9 L 11.28125 9.1875 L 8 12 L 10 12 L 10 15 L 13 15 L 13 12 L 15 12 L 11.71875 9.1875 L 11.5 9 z"/>
</svg>
